X:1
T:Collaudamus venerantes - Anon.
T:#
%%score [ 1 2 3 4 ]
L:1/8
Q:1/4=200
M:none
K:C
V:1 treble nm="Soprano" snm="S"
V:2 treble nm="Alto" snm="A"
V:3 treble-8 nm="Tenor" snm="T"
V:4 bass nm="Bass" snm="B"
V:1
"^Collaudamus venerantes""^Anonymous" A16- | A8 F8 | G16 | G8 G8 | G4 (G8 ^F2 E2 | ^F8) G8 | %6
w: Col\-|* lau-|da-|mus ve-|ne- ran\- * *|* tes|
 z8 G8 | (A4 B4) c4 G4 | (B2 A2 A8 G4 | A4 c8) (B2 A2 | B8) c8- | c8 z4 A4- | A4 G4 (F4 _B4- | %13
w: O-|mnes * coe- li|mi\- * * *|* * li\- *|* tes,|* Sed|* prae- ci\- *|
 B4) A4 G4 c4- | c4 (B8 A4) | G16 | z8 z4 A4- | A4 G4 A6 A2 | A4 A4 (F6 G2) | A8 z8 | G8 A8- | %21
w: * pu- e pri\-|* ma\- *|tem,|sed|* prae- ci- pu-|e pri- ma\- *|tem|Coe- le\-|
 A8 c4 (c4- | c2 B2 A2 G2) (A8- | A4 ^G2 ^F2 G8) | A8 E8- | E8 G8- | G8 F4 A4- | A4 F4 A8 | %28
w: * stis ex\-|* * * * er\-||ci- tus,|* Mi\-|* cha- e\-|* lem in|
 G8 (c8- | c4 B2 A2 B8) | c8 z8 | A12 G4 | G8 (G8- | G8 A8 | E8) G8- | G16 | (A12 ^G2 ^F2 | %37
w: vir- tu\-||te|Con- te-|ren- tem||* Za\-||bu\- * *|
 ^G8) A16 |] z16 | z16 | z8 A8- | A4 A4 A8 | B8 c4 A4 | (c6 BA G8- | G4 ^F2 E2 F8) | G8 z8 | %46
w: * lum.|||Glo\-|* ri- am|Pa- tri me-|lo\- * * *||dis|
 G4 A8 B4- | B4 (G8 A4- | A4) (d8 c2 B2 | c8) d8 | (c6 B2 A8) | z8 z4 c4- | c4 B4 c4 (e4- | %53
w: Per- so- ne\-|* mus *|* vo\- * *|* ci-|bus; * *|Glo\-|* ri- am Chri\-|
 e2 d2 c6 B2 A2 G2) | (A12 G2 F2) | G8 A8- | A8 F8 | A12 G4 | (c6 B2 c2 d2) (e4- | e4 d2 c2) d8 | %60
w: |sto * *|ca- na\-|* mus,|Glo- ri-|am * * * Pa\-|* * * ra-|
 e16 | c8 z4 (c4- | c2 B2) G8 (A2 B2) | c16- | c8 z4 (e4- | e4 d2 c2) d8 | e8 (e6 d2) | %67
w: cli-|to, Pa\-|* * ra- cli\- *|to,|* Qui|* * * tri-|nus et *|
 (c6 B2) A8- | A8 A8 | A4 (c8 B2 A2 | B4 c4) A4 (B4- | B4 A2 G2 A4 B4) | G4 (A8 G4- | G4) F4 G8 | %74
w: u\- * nus|* De-|us Ex\- * *|* * tat an\-||te sae\- *|* cu- la,|
 (c12 B2 A2) | B8 (c6 B2 | A2 G2 A8 ^G2 ^F2) | ^G8 !fermata!A16 || (A12 ^G2 ^F2 | ^G8) A8- | A16 | %81
w: an\- * *|te sae\- *||cu- la.|A\- * *|* men.||
 !fermata!A16 |] %82
w: |
V:2
 C16 | C16 | D16 | E8 E8 | D8 D8- | D8 B,8 | A,8 G,8 | z8 A,6 G,2 | D4 A,4 B,8 | (C2 D2 E2 F2 G8- | %10
w: Col-|lau-|da-|mus ve-|ne- ran\-||* tes|O- mnes|coe- li mi-|li\- * * * *|
 G8) E8- | E8 z8 | z16 | z16 | z8 z4 C4- | C4 B,4 C6 D2 | E12 (F4- | F4 D4) E8- | E8 D8 | %19
w: * tes,||||Sed|* prae- ci- pu-|e pri\-|* * ma\-|* tem|
 z4 D8 C4 | B,4 B,4 A,8- | A,8 A,4 E4- | E4 (C8 D4) | E16 | C16 | B,12 E4- | %26
w: Coe- le-|stis ex- er\-|* ci- tus,|* ex\- *|er-|ci-|tus, Mi\-|
 E4 D4 (C2 B,2 A,2 G,2 | F,2 G,2 A,2 B,2 C4 D4- | D4) E8 F4 | G16 | (E6 F2 G8) | C8 z8 | E8 D8- | %33
w: * cha- e\- * * *||* lem in|vir-|tu\- * *|te|Con- te\-|
 D8 F8 | (E4 C8 B,2 A,2 | B,8) (C8- | C4 D4) E8- | E8 ^C16 |] C12 D4 | (E4 F4 G8) | E16- | E8 F8 | %42
w: * ren-|tem * * *|* Za\-|* * bu\-|* lum.|Glo- ri-|am * *|Pa\-|* tri|
 (G6 F2 E2 D2 C4) | E8 D8- | D16 | B,4 D4 E8- | E8 F8 | (G8 E8 | F8) G8- | G8 F8- | F8 z8 | %51
w: me\- * * * *|lo- dis||Per- so- ne\-|* mus|vo\- *|* ci\-|* bus;||
 G12 G4 | G8 E4 (G4- | G2 F2 E2 D2) (C6 D2) | (E4 F8 E4 | D8 E8- | E8) D8- | D8 E8- | E4 E4 E8 | %59
w: Glo- ri-|am Chri- sto|* * * * ca\- *|na\- * *||* mus,|* Glo\-|* ri- am|
 F12 (A4- | A4 ^G2 ^F2) G8 | A12 =F4 | (G4 E6 D2 C2 D2 | E2 F2 G8) (F4- | F4 E2 D2) E8 | %65
w: Pa- ra\-|* * * cli-|to, Qui|tri\- * * * *|* * * nus|* * * et|
 (F6 E2 F2 G2 A4- | A4 ^G2 ^F2) G8 | (A6 =G2 F8 | E16) | A,8 z8 | z16 | z16 | z16 | D8 G,8 | %74
w: u\- * * * *|* * * nus|De\- * *||us||||Ex- tat|
 G8 G8- | G8 (E8 | F8) E8- | E8 !fermata!^C16 || (E16- | E16 | F16) | !fermata!E16 |] %82
w: an- te|* sae\-|* cu\-|* la.|A\-|||men.|
V:3
 A16 | A8 A8 | G16 | c16 | B8 A8- | A8 G8 | c8 d8 | e8 c8 | d8 e8- | e8 d8- | d8 z8 | c16- | %12
w: Col-|lau- da-|mus|ve-|ne- ran\-|* tes|O- mnes|coe- li|mi- li\-|* tes,||Sed|
 c8 d8- | d8 e8- | e8 d8- | d8 c8- | c8 c8 | (d12 c2 B2 | c8) A8- | A8 z8 | d16 | c16 | c8 A8 | %23
w: * prae\-|* ci\-|* pu\-|* e|* pri-|ma\- * *|* tem||Coe-|le-|stis ex-|
 B16 | A16 | G8 z8 | G8 A8 | c8 A8 | B8 c8 | d16 | c8 e8- | e8 d8 | c16 | (B8 c8- | c8 d8- | %35
w: er-|ci-|tus,|Mi- cha-|e- lem|in vir-|tu-|te ~Con\-|* te-|ren-|tem *||
 d8) (c8 | A8) B8- | B8 A16 |] z16 | z16 | A12 A4 | A16 | G8 c8- | c8 B8 | A16 | G8 c8- | c8 d8 | %47
w: * Za\-|* bu\-|* lum.|||Glo- ri-|am|Pa- tri|* me-|lo-|dis Per\-|* so-|
 e8 c8 | d8 e8- | e8 d8 | z8 c8 | d8 e8 | d8 c8- | c16 | c8 d8 | (d12 c2 B2 | c8) A8 | d8 c8- | %58
w: ne- mus|vo- ci\-|* bus;|Glo-|ri- am|Chri- sto||* ca-|na\- * *|* mus,|Glo- ri\-|
 c8 c8 | A16 | B16 | A16 | G8 z8 | G8 A8 | c16 | A16 | B16 | c8 (d8- | d4 c2 B2) c8 | e16- | %70
w: * am|Pa-|ra-|cli-|to,|Qui tri-|nus|et|u-|nus De\-|* * * us|Ex\-|
 e8 d8- | d16 | c16 | B8 (c8- | c8 d8- | d8 c8- | c4 d4) B8- | B8 !fermata!A16 || (c8 B8- | B8 A8 | %80
w: * tat||an-|te sae\-|||* * cu\-|* la.|A\- *||
 d16) | !fermata!c16 |] %82
w: |men.|
V:4
 A,12 A,4 | (F,6 G,2 A,2 B,2 C4- | C4 B,2 A,2 B,8) | C4 (C,6 D,2 E,2 F,2) | G,8 D,8- | D,8 G,8 | %6
w: Col- lau-|da\- * * * *||mus ve\- * * *|ne- ran\-|* tes|
 z4 C8 B,4 | (A,4 G,4 F,4) E,4 | D,4 F,4 E,8 | z4 C,4 G,8- | G,8 C,8- | C,8 z4 F,4- | %12
w: O- mnes|coe\- * * li|mi- li- tes,|mi- li\-|* tes,|* Sed|
 F,4 E,4 (F,4 G,4- | G,4) F,4 G,4 A,4- | A,4 (G,8 F,4 | G,8) C,8 | (C8 A,8) | (_B,8 A,8- | %18
w: * prae- ci\- *|* pu- e pri\-|* ma\- *|* tem,|pri\- *|ma\- *|
 A,8) D,8- | D,8 G,8- | G,8 F,8- | F,8 F,4 C,4 | (F,16 | E,16) | A,,16 | E,16 | z8 F,8- | %27
w: * tem|* Coe\-|* le\-|* stis ex-|er\-||ci-|tus,|Mi\-|
 F,4 F,4 F,8 | G,8 A,4 A,4 | G,16 | C,4 C8 B,4 | (A,6 G,2 F,4 G,4) | (C,8 G,8- | G,8 F,8 | %34
w: * cha- e-|lem in vir-|tu-|te ~Con- te-|ren\- * * *|tem *||
 A,8) (G,8- | G,8 C,8 | F,8) E,8- | E,8 A,,16 |] A,12 A,4 | A,8 G,8 | (C12 B,4 | A,4) G,4 (F,8 | %42
w: * Za\-||* bu\-|* lum.|Glo- ri-|am Pa-|tri *|* me- lo\-|
 E,12 F,4 | C,2 D,2 E,2 F,2 G,8 | D,16 | G,8 C,8- | C,8 z8 | z16 | z16 | z8 D,6 E,2 | %50
w: |||* dis,||||Glo\- *|
 F,6 G,2 A,2 B,2 C4- | C4 B,4 C4) C,4 | G,8 (C,8 | C8) A,8- | A,4 A,4 (_B,8- | B,8 A,8- | %56
w: |* * * ri-|am Chri\-|* sto|* ca- na\-||
 A,8) D,8- | D,8 z8 | C,16 | F,16 | E,16 | A,,8 D,4 F,4 | C,16- | C,8 z8 | C,16 | F,12 F,4 | E,16 | %67
w: * mus,||Glo-|ri-|am|Pa- ra- cli-|to,||Qui|tri- nus|et|
 A,4 A,4 D,8 | A,16 | z4 (A,8 G,2 F,2 | G,4 A,4) F,4 (G,4- | G,4 F,2 E,2 F,4 G,4) | E,4 (F,8 E,4) | %73
w: u- nus De-|us|Ex\- * *|* * tat an\-||te sae\- *|
 D,8 C,8- | C,8 G,8- | G,8 C,8 | (F,4 D,4) E,8- | E,8 !fermata!A,,16 || (A,8 E,8- | E,8 A,8 | %80
w: cu- la,|* an\-|* te|sae\- * cu\-|* la.|A\- *||
 D,16) | !fermata!A,16 |] %82
w: |men.|

